X: 15
T:Difyrrwch William Phillip
T:William Phillip's Delight
M:C
L:1/8
Q:200
S:Robin Huw Bowen
R:
A:Wales
Z:brian_martin12345@yahoo.com
K:Dm
DEFG AB c2|d2d2cBA2|B2A2A3G|F2E2D4:||
F2FGA2AB|c2c2B2A2|d2def3e|d2^ced4:||
